X: 1
T: the Helston Furry 
M: C|
L: 1/8
F: http://www.an-daras.com/files/noteworthy/music/Helston%20Furry%20Ver.2.nwc
K: C
[| "C"C3D  E3F  | G2G2 "G7"G2AB | "C"c2G2 "G7"GAGF | "C"E4 C2G,2 \
|  "C"C2CD E2EF | G2G2 "G7"G2AB | "C"c2G2 "G7"GAGF | "C"E2C2 "C7"C4 ||
|| "F"F2A2 A2GF | "C"E2G2 G4   | "G7"D2F2 F2ED | "C"EDEF "C7"G4 \
|  "F"F2A2 A2GF | "C"EFGA "G7"G2AB | "C"c2G2 "G7"GAGF | "C"E4 C4 |]
